img/robot-cleaner.svg

<svg xmlns='http://www.w3.org/2000/svg' width='48' viewBox='0 0 48 29'><g transform='translate(-2 -12)' fill='none' fill-rule='evenodd'><circle fill='none' cx='26' cy='26' r='26'/><g transform='translate(2 12)' fill='#333' fill-rule='nonzero'><path d='M24 .06253125C11.6630625.06253125 0 5.40825 0 11.0625c0 10.766625 3.92671875 16.9999687 24 16.9999687 20.0732813 0 24-6.2333437 24-16.9999687C48 5.40825 36.3369375.06253125 24 .06253125zM24 2.0625c12.7617188 0 22.0000313 5.376 22.0000313 9 0 3.3809062-8.839875 7.0000312-22.0000313 7.0000312-13.1601562 0-22.00003125-3.619125-22.00003125-7.0000312 0-3.624 9.23831255-9 22.00003125-9zm0 24c-15.72159375 0-20.59715625-3.8221875-21.7100625-10.9407188C6.34303125 18.3752813 15.20325 20.0625 24 20.0625s17.6569688-1.6872187 21.7100625-4.9407188C44.5971562 22.2403125 39.7215938 26.0625 24 26.0625z'/><circle cx='18' cy='5.0625' r='1.00003125'/><circle cx='22.0000312' cy='5.0625' r='1.00003125'/><circle cx='25.9999688' cy='5.0625' r='1.00003125'/><circle cx='30' cy='5.0625' r='1.00003125'/><path d='M22.0000312 23.0625c0 .55275.4472813 1.0000312 1.0000313 1.0000312h1.9999687c.55275 0 1.0000313-.4472812 1.0000313-1.0000312 0-.55275-.4472813-1.0000312-1.0000313-1.0000312h-1.9999687c-.55275 0-1.0000313.4472812-1.0000313 1.0000312z'/></g></g></svg>

<?xml version="1.0" encoding="UTF-8"?>
<svg width="48px" height="29px" viewBox="0 0 48 29" version="1.1" xmlns="http://www.w3.org/2000/svg" xmlns:xlink="http://www.w3.org/1999/xlink">
    <!-- Generator: Sketch 51.2 (57519) - http://www.bohemiancoding.com/sketch -->
    <title>robot-cleaner</title>
    <desc>Created with Sketch.</desc>
    <defs></defs>
    <g id="Events" stroke="none" stroke-width="1" fill="none" fill-rule="evenodd">
        <g id="Assets" transform="translate(-446.000000, -335.000000)">
            <g id="Icon" transform="translate(444.000000, 323.000000)">
                <circle id="Oval" fill-opacity="0" fill="#D8D8D8" cx="26" cy="26" r="26"></circle>
                <g id="007-google-home" transform="translate(2.000000, 12.000000)" fill="#333333" fill-rule="nonzero">
                    <path d="M24,0.06253125 C11.6630625,0.06253125 0,5.40825 0,11.0625 C0,21.829125 3.92671875,28.0624687 24,28.0624687 C44.0732813,28.0624687 48,21.829125 48,11.0625 C48,5.40825 36.3369375,0.06253125 24,0.06253125 Z M24,2.0625 C36.7617188,2.0625 46.0000313,7.4385 46.0000313,11.0625 C46.0000313,14.4434062 37.1601563,18.0625312 24,18.0625312 C10.8398438,18.0625312 1.99996875,14.4434062 1.99996875,11.0625 C1.99996875,7.4385 11.2382813,2.0625 24,2.0625 Z M24,26.0625 C8.27840625,26.0625 3.40284375,22.2403125 2.2899375,15.1217812 C6.34303125,18.3752813 15.20325,20.0625 24,20.0625 C32.79675,20.0625 41.6569688,18.3752813 45.7100625,15.1217812 C44.5971562,22.2403125 39.7215938,26.0625 24,26.0625 Z" id="Shape"></path>
                    <circle id="Oval" cx="18" cy="5.0625" r="1.00003125"></circle>
                    <circle id="Oval" cx="22.0000312" cy="5.0625" r="1.00003125"></circle>
                    <circle id="Oval" cx="25.9999688" cy="5.0625" r="1.00003125"></circle>
                    <circle id="Oval" cx="30" cy="5.0625" r="1.00003125"></circle>
                    <path d="M22.0000312,23.0625 C22.0000312,23.61525 22.4473125,24.0625312 23.0000625,24.0625312 L25.0000312,24.0625312 C25.5527812,24.0625312 26.0000625,23.61525 26.0000625,23.0625 C26.0000625,22.50975 25.5527812,22.0624688 25.0000312,22.0624688 L23.0000625,22.0624688 C22.4473125,22.0624688 22.0000312,22.50975 22.0000312,23.0625 Z" id="Shape"></path>
                </g>
            </g>
        </g>
    </g>
</svg>
